src/assets/outline/Map.svg

<svg width="24" height="24" viewBox="0 0 24 24"  xmlns="http://www.w3.org/2000/svg">
<path d="M15.65 21.4102C15.22 21.4102 14.79 21.3202 14.44 21.1502L9.19004 18.5202C8.89004 18.3702 8.30004 18.3802 8.01004 18.5502L5.65004 19.9002C4.63004 20.4802 3.58004 20.5602 2.79004 20.0902C1.99004 19.6302 1.54004 18.6902 1.54004 17.5102V7.79016C1.54004 6.88016 2.14004 5.85016 2.93004 5.40016L7.26004 2.92016C7.99004 2.50016 9.10004 2.47016 9.85004 2.85016L15.1 5.48016C15.4 5.63016 15.98 5.61016 16.28 5.45016L18.63 4.11016C19.65 3.53016 20.7 3.45016 21.49 3.92016C22.29 4.38016 22.74 5.32016 22.74 6.50016V16.2302C22.74 17.1402 22.14 18.1702 21.35 18.6202L17.02 21.1002C16.64 21.3002 16.14 21.4102 15.65 21.4102ZM8.64004 16.9202C9.07004 16.9202 9.50004 17.0102 9.85004 17.1802L15.1 19.8102C15.4 19.9602 15.98 19.9402 16.28 19.7802L20.61 17.3002C20.93 17.1202 21.24 16.5802 21.24 16.2202V6.49016C21.24 5.86016 21.06 5.39016 20.73 5.21016C20.41 5.03016 19.91 5.10016 19.37 5.41016L17.02 6.75016C16.29 7.17016 15.18 7.20016 14.43 6.82016L9.18004 4.19016C8.88004 4.04016 8.30004 4.06016 8.00004 4.22016L3.67004 6.70016C3.35004 6.88016 3.04004 7.42016 3.04004 7.79016V17.5202C3.04004 18.1502 3.22004 18.6202 3.54004 18.8002C3.86004 18.9902 4.36004 18.9102 4.91004 18.6002L7.26004 17.2602C7.65004 17.0302 8.15004 16.9202 8.64004 16.9202Z" />
<path d="M8.56006 17.75C8.15006 17.75 7.81006 17.41 7.81006 17V4C7.81006 3.59 8.15006 3.25 8.56006 3.25C8.97006 3.25 9.31006 3.59 9.31006 4V17C9.31006 17.41 8.97006 17.75 8.56006 17.75Z" />
<path d="M15.73 20.7501C15.32 20.7501 14.98 20.4101 14.98 20.0001V6.62012C14.98 6.21012 15.32 5.87012 15.73 5.87012C16.14 5.87012 16.48 6.21012 16.48 6.62012V20.0001C16.48 20.4101 16.14 20.7501 15.73 20.7501Z" />
</svg>

<?xml version="1.0" encoding="UTF-8"?>
<svg width="24" height="24" viewBox="0 0 24 24" xmlns="http://www.w3.org/2000/svg">
 <path d="m15.65 21.41c-0.43 0-0.86-0.09-1.21-0.26l-5.25-2.63c-0.3-0.15-0.89-0.14-1.18 0.03l-2.36 1.35c-1.02 0.58-2.07 0.66-2.86 0.19-0.8-0.46-1.25-1.4-1.25-2.58v-9.72c0-0.91 0.6-1.94 1.39-2.39l4.33-2.48c0.73-0.42 1.84-0.45 2.59-0.07l5.25 2.63c0.3 0.15 0.88 0.13 1.18-0.03l2.35-1.34c1.02-0.58 2.07-0.66 2.86-0.19 0.8 0.46 1.25 1.4 1.25 2.58v9.73c0 0.91-0.6 1.94-1.39 2.39l-4.33 2.48c-0.38 0.2-0.88 0.31-1.37 0.31zm-7.01-4.49c0.43 0 0.86 0.09 1.21 0.26l5.25 2.63c0.3 0.15 0.88 0.13 1.18-0.03l4.33-2.48c0.32-0.18 0.63-0.72 0.63-1.08v-9.73c0-0.63-0.18-1.1-0.51-1.28-0.32-0.18-0.82-0.11-1.36 0.2l-2.35 1.34c-0.73 0.42-1.84 0.45-2.59 0.07l-5.25-2.63c-0.3-0.15-0.88-0.13-1.18 0.03l-4.33 2.48c-0.32 0.18-0.63 0.72-0.63 1.09v9.73c0 0.63 0.18 1.1 0.5 1.28 0.32 0.19 0.82 0.11 1.37-0.2l2.35-1.34c0.39-0.23 0.89-0.34 1.38-0.34z"/>
 <path d="m8.5601 17.75c-0.41 0-0.75-0.34-0.75-0.75v-13c0-0.41 0.34-0.75 0.75-0.75s0.75 0.34 0.75 0.75v13c0 0.41-0.34 0.75-0.75 0.75z"/>
 <path d="m15.73 20.75c-0.41 0-0.75-0.34-0.75-0.75v-13.38c0-0.41 0.34-0.75 0.75-0.75s0.75 0.34 0.75 0.75v13.38c0 0.41-0.34 0.75-0.75 0.75z"/>
</svg>
